packages/icons/src/SVG/double-chevron-down.svg

<svg width="12" height="12" viewBox="0 0 12 12" >
<path d="M10.4011 0.5L6 4.80751L1.59893 0.5L0.5 1.49208L6 7L11.5 1.49208L10.4011 0.5Z" />
<path d="M10.4011 5L6 9.30751L1.59893 5L0.5 5.99208L6 11.5L11.5 5.99208L10.4011 5Z" />
</svg>

<!-- Generated by IcoMoon.io -->
<svg version="1.1" xmlns="http://www.w3.org/2000/svg" width="12" height="12" viewBox="0 0 12 12">
<title>double-chevron-down</title>
<path d="M10.401 0.5l-4.401 4.308-4.401-4.308-1.099 0.992 5.5 5.508 5.5-5.508-1.099-0.992z"></path>
<path d="M10.401 5l-4.401 4.308-4.401-4.308-1.099 0.992 5.5 5.508 5.5-5.508-1.099-0.992z"></path>
</svg>
